images/badge-mac.svg

<svg fill="none" height="65" viewBox="0 0 251 65" width="251" xmlns="http://www.w3.org/2000/svg"><rect fill="#000" height="64" rx="5.08475" width="249.492" x=".728516" y=".931641"/><g fill="#fff"><path d="m40.3573 33.4133c.035-2.7143 1.458-5.2215 3.7705-6.6433-1.4654-2.0929-3.832-3.3723-6.3858-3.4522-2.6868-.2821-5.2915 1.6077-6.6607 1.6077-1.3956 0-3.5036-1.5797-5.7736-1.533-2.9866.0965-5.7035 1.7534-7.1566 4.3646-3.0944 5.3574-.7863 13.2311 2.1779 17.5617 1.483 2.1205 3.2163 4.4893 5.4842 4.4053 2.2193-.0921 3.0482-1.4152 5.727-1.4152 2.6541 0 3.4317 1.4152 5.7456 1.3618 2.3814-.0387 3.8818-2.13 5.3129-4.2707 1.0655-1.5109 1.8855-3.1809 2.4294-4.948-2.8284-1.1963-4.6675-3.9677-4.6708-7.0387z"/><path d="m35.9855 20.4693c1.2985-1.5588 1.9382-3.5623 1.7833-5.585-1.9838.2083-3.8162 1.1564-5.1322 2.6554-1.2995 1.4788-1.9578 3.4136-1.8299 5.3782 2.0103.0207 3.9191-.8818 5.1788-2.4486z"/><path d="m74.5664 49.7257v-14.6234h-.0969l-5.989 14.4719h-2.286l-6.0047-14.4719h-.0953v14.6234h-2.8093v-19.8688h3.5671l6.4297 15.6828h.1094l6.4172-15.6828h3.5797v19.8688z"/><path clip-rule="evenodd" d="m85.1441 41.3402c-3.4437.2063-5.3843 1.736-5.3843 4.2688.0013 1.2381.5253 2.4182 1.4429 3.2495.9176.8314 2.1435 1.2367 3.3758 1.1161 1.8899.0229 3.6422-.9856 4.5719-2.6313h.0688v2.3828h2.85v-9.9281c0-2.8501-2.286-4.736-5.7422-4.736-3.386 0-5.8235 1.8578-5.9063 4.475h2.7813c.3554-1.3491 1.6592-2.223 3.0422-2.0391 1.8046 0 2.8656.9094 2.8656 2.5204v1.1015zm3.9672 1.8451v1.1156h.0001c-.0394.9356-.455 1.8157-1.1526 2.4406-.6975.6249-1.6178.9415-2.5522.8781-1.5968 0-2.6437-.8265-2.6437-2.0937 0-1.2391 1.0047-2.0094 2.7812-2.1203z" fill-rule="evenodd"/><path d="m104.556 40.2242c-.269-1.6431-1.754-2.8045-3.414-2.6704-2.2858 0-3.7998 1.9141-3.7998 4.9297 0 3.0844 1.5281 4.9422 3.8268 4.9422 1.639.1642 3.123-.9755 3.387-2.6016h2.864c-.37 3.1149-3.154 5.3681-6.278 5.0813-4.131 0-6.8295-2.8234-6.8295-7.4219 0-4.5031 2.6984-7.4218 6.8015-7.4218 3.147-.2669 5.933 2.0234 6.28 5.1625z"/><path clip-rule="evenodd" d="m119.171 44.3554h7.574l1.817 5.3703h3.262l-7.173-19.8688h-3.333l-7.173 19.8688h3.207zm6.789-2.478h-6.003l2.961-8.7156h.082z" fill-rule="evenodd"/><path clip-rule="evenodd" d="m141.27 49.8777c3.636 0 6.045-2.8922 6.045-7.3938 0-4.489-2.423-7.3953-6.1-7.3953-1.892-.061-3.664.923-4.612 2.561h-.055v-2.4094h-2.878v19.2781h2.973v-7.175h.069c.908 1.6483 2.679 2.6327 4.558 2.5344zm-.841-12.2549c2.312 0 3.828 1.9281 3.828 4.8609 0 2.9594-1.516 4.8734-3.828 4.8734-2.272 0-3.8-1.9547-3.8-4.8734 0-2.8922 1.528-4.8609 3.8-4.8609z" fill-rule="evenodd"/><path clip-rule="evenodd" d="m157.213 49.8777c3.636 0 6.046-2.8922 6.046-7.3938 0-4.489-2.424-7.3953-6.1-7.3953-1.892-.061-3.664.923-4.613 2.561h-.055v-2.4094h-2.878v19.2781h2.974v-7.175h.069c.908 1.6483 2.678 2.6327 4.557 2.5344zm-.838-12.2549c2.313 0 3.829 1.9281 3.829 4.8609 0 2.9594-1.516 4.8734-3.829 4.8734-2.271 0-3.8-1.9547-3.8-4.8734 0-2.8922 1.529-4.8609 3.8-4.8609z" fill-rule="evenodd"/><path d="m173.794 44.19c.22 1.9703 2.134 3.264 4.75 3.264 2.506 0 4.309-1.2937 4.309-3.0703 0-1.5422-1.087-2.4656-3.662-3.0984l-2.575-.6203c-3.649-.8813-5.343-2.5876-5.343-5.3563 0-3.4281 2.988-5.7828 7.23-5.7828 4.199 0 7.077 2.3547 7.174 5.7828h-3.002c-.18-1.9828-1.819-3.1797-4.214-3.1797s-4.034 1.211-4.034 2.9735c0 1.4046 1.046 2.2312 3.607 2.864l2.189.5375c4.077.964 5.771 2.6016 5.771 5.5078 0 3.7172-2.961 6.0453-7.671 6.0453-4.406 0-7.381-2.2735-7.573-5.8672z"/><path d="m192.414 31.812v3.4281h2.755v2.3547h-2.755v7.986c0 1.2406.552 1.8187 1.763 1.8187.327-.0057.653-.0287.978-.0688v2.3406c-.545.1018-1.098.1478-1.652.1375-2.933 0-4.076-1.1015-4.076-3.9109v-8.3031h-2.107v-2.3547h2.107v-3.4281z"/><path clip-rule="evenodd" d="m203.63 35.062c-4.186 0-6.87 2.8641-6.87 7.4219 0 4.5703 2.658 7.4219 6.87 7.4219 4.214 0 6.872-2.8516 6.872-7.4219 0-4.5579-2.672-7.4219-6.872-7.4219zm0 2.4498c2.409 0 3.842 1.8453 3.842 4.9719 0 3.139-1.433 4.9703-3.842 4.9703s-3.842-1.8313-3.842-4.9703c0-3.1125 1.433-4.9719 3.842-4.9719z" fill-rule="evenodd"/><path d="m212.957 35.2401h2.836v2.4656h.069c.395-1.5873 1.85-2.6796 3.484-2.6172.343-.0012.685.036 1.019.1109v2.7813c-.433-.1322-.884-.1929-1.336-.1797-.874-.0355-1.72.3129-2.316.9537-.596.6407-.882 1.5098-.783 2.3791v8.5922h-2.973z"/><path clip-rule="evenodd" d="m227.837 49.9058c3.277 0 5.838-1.8047 6.238-4.4344h-2.823c-.542 1.3441-1.903 2.1727-3.346 2.0375-1.082.0398-2.129-.3871-2.874-1.1721-.746-.7851-1.118-1.8526-1.023-2.931v-.1797h10.232v-1.0188c0-4.3922-2.521-7.1453-6.528-7.1453-4.076 0-6.705 2.9469-6.705 7.4906 0 4.5297 2.615 7.3532 6.829 7.3532zm3.429-8.758h-7.242c-.002-.978.386-1.9165 1.079-2.6069.692-.6904 1.632-1.0755 2.61-1.0697.971-.0208 1.906.3641 2.58 1.062.675.6979 1.027 1.6455.973 2.6146z" fill-rule="evenodd"/><path clip-rule="evenodd" d="m64.622 16.2101c-.8702-.919-2.1066-1.3992-3.3689-1.3086h-3.4484v9.5469h3.4484c2.8438 0 4.4922-1.7532 4.4922-4.8032.1592-1.2555-.2531-2.5162-1.1233-3.4351zm-3.5353 6.8884h-1.8v-6.8477h1.8c.8973-.0498 1.77.304 2.3792.9647.6093.6607.8914 1.559.7693 2.4494.1317.8941-.1464 1.7999-.7572 2.466s-1.4892 1.0215-2.3913.9676z" fill-rule="evenodd"/><path clip-rule="evenodd" d="m69.0184 17.6175c-1.1023.684-1.7215 1.9338-1.598 3.2252-.1259 1.2928.4928 2.545 1.5961 3.2305 1.1032.6855 2.4999.6855 3.6032 0s1.7219-1.9377 1.596-3.2305c.1236-1.2914-.4957-2.5412-1.5979-3.2252-1.1023-.684-2.4971-.684-3.5994 0zm1.8007.7501c1.2312 0 1.9328.9133 1.9328 2.475 0 1.5679-.7016 2.4804-1.9328 2.4805-1.2359 0-1.9312-.9063-1.9312-2.4805 0-1.5617.6953-2.475 1.9312-2.475z" fill-rule="evenodd"/><path d="m83.2484 24.4483h-1.475l-1.489-5.3062h-.1125l-1.4828 5.3062h-1.461l-1.9859-7.2046h1.4422l1.2906 5.4976h.1063l1.4812-5.4976h1.3641l1.4812 5.4976h.1125l1.2844-5.4976h1.4219z"/><path d="m86.8945 17.2439h1.3688v1.1445h.1062c.3695-.8427 1.2329-1.3582 2.15-1.2836.7101-.0534 1.406.219 1.8911.7403.4852.5213.7069 1.2349.6027 1.9394v4.664h-1.4219v-4.307c0-1.1578-.5031-1.7336-1.5547-1.7336-.4816-.0224-.9491.1666-1.2797.5176-.3307.3509-.4916.8287-.4406 1.3082v4.2148h-1.4219z"/><path d="m95.2805 14.4312h1.4218v10.0171h-1.4218z"/><path clip-rule="evenodd" d="m100.278 17.6175c-1.1021.684-1.7214 1.9338-1.5978 3.2252-.1259 1.2928.4928 2.545 1.5958 3.2305s2.5.6855 3.603 0c1.104-.6855 1.722-1.9377 1.596-3.2305.124-1.2914-.495-2.5412-1.597-3.2252-1.103-.684-2.498-.684-3.6 0zm1.802.7501c1.232 0 1.933.9133 1.933 2.475 0 1.5679-.701 2.4804-1.933 2.4805-1.235 0-1.931-.9063-1.931-2.4805 0-1.5617.695-2.475 1.931-2.475z" fill-rule="evenodd"/><path clip-rule="evenodd" d="m109.65 20.2599c-1.714.1063-2.679.854-2.679 2.1508.002.6149.265 1.2002.722 1.611.458.4108 1.068.6089 1.679.5452.873.0404 1.699-.3918 2.164-1.1312h.113v1.0125h1.369v-4.9226c0-1.5219-1.019-2.4211-2.825-2.4211-1.635 0-2.799.7937-2.944 2.0312h1.376c.158-.5093.708-.8007 1.502-.8007.972 0 1.475.4296 1.475 1.1906v.6219zm1.951.9327v.6023c-.031.4592-.247.8861-.599 1.183s-.809.4384-1.267.392c-.773 0-1.336-.3773-1.336-1.0258 0-.6351.45-.9726 1.442-1.039z" fill-rule="evenodd"/><path clip-rule="evenodd" d="m117.877 17.1241c-1.82 0-2.99 1.4422-2.99 3.7188 0 2.282 1.158 3.7243 2.99 3.7242.93.0342 1.801-.45 2.263-1.2571h.112v1.1383h1.363v-10.0171h-1.422v3.9569h-.106c-.43-.8138-1.29-1.3063-2.21-1.264zm.404 6.1666c-1.205 0-1.925-.9195-1.925-2.4476h-.001c0-1.5157.729-2.4414 1.926-2.4414 1.19 0 1.939.9461 1.939 2.4476 0 1.5086-.741 2.4414-1.939 2.4414z" fill-rule="evenodd"/><path clip-rule="evenodd" d="m129.097 17.6175c-1.103.6841-1.722 1.9339-1.598 3.2253-.126 1.2929.493 2.545 1.596 3.2305s2.5.6855 3.603 0c1.104-.6855 1.722-1.9376 1.597-3.2305.123-1.2914-.496-2.5412-1.599-3.2253-1.102-.684-2.497-.684-3.599 0zm1.8.7501c1.231 0 1.933.9133 1.933 2.475 0 1.5679-.702 2.4804-1.933 2.4805-1.236 0-1.931-.9063-1.931-2.4805 0-1.5617.695-2.475 1.931-2.475z" fill-rule="evenodd"/><path d="m136.201 17.2439h1.369v1.1445h.106c.37-.8427 1.233-1.3582 2.15-1.2836.71-.0534 1.406.219 1.891.7403s.707 1.2349.603 1.9394v4.664h-1.422v-4.307c0-1.1578-.503-1.7336-1.555-1.7336-.481-.0224-.949.1666-1.279.5176-.331.3509-.492.8287-.441 1.3082v4.2148h-1.422z"/><path d="m150.356 15.4497v1.8266h1.561v1.1976h-1.561v3.7047c0 .7547.311 1.0852 1.019 1.0852.181-.0006.362-.0116.542-.0328v1.1843c-.255.0457-.514.07-.773.0727-1.581 0-2.211-.5563-2.211-1.9453v-4.0688h-1.144v-1.1977h1.144v-1.8265z"/><path d="m153.857 14.4312h1.41v3.9703h.112c.388-.8501 1.266-1.3662 2.197-1.2907.706-.0384 1.393.24 1.872.7594.48.5195.703 1.2258.609 1.9266v4.6516h-1.423v-4.3008c0-1.1508-.536-1.7336-1.541-1.7336-.494-.0406-.982.1392-1.331.4914-.35.3521-.527.8407-.483 1.3351v4.2078h-1.422z"/><path clip-rule="evenodd" d="m165.226 24.5874c1.408.1527 2.723-.7253 3.122-2.0844h-1.369c-.341.6119-1.018.9569-1.714.8734-.536.006-1.05-.2146-1.416-.6076-.365-.3929-.548-.9217-.503-1.4564v-.0796h5.088v-.4962c0-2.2624-1.21-3.632-3.214-3.632-.963-.0082-1.883.4019-2.52 1.1241-.637.7221-.93 1.6853-.802 2.64-.131.952.162 1.9136.803 2.6297.641.7162 1.564 1.1144 2.525 1.089zm1.759-4.4061h-3.639c-.006-.4968.188-.9752.539-1.3266.352-.3514.83-.546 1.327-.5398.49-.0112.962.1851 1.3.5405s.51.837.473 1.3259z" fill-rule="evenodd"/></g></svg>

<svg width="251" height="65" viewBox="0 0 251 65" fill="none" xmlns="http://www.w3.org/2000/svg">
<g id="badge-mac">
<g id="Group">
<g id="Group_2">
<rect id="Rectangle" x="0.728516" y="0.931641" width="249.492" height="64" rx="5.08475" fill="black"/>
</g>
<g id="_Group_">
<g id="_Group_2">
<g id="_Group_3">
<g id="_Group_4">
<path id="_Path_" d="M40.3573 33.4133C40.3923 30.699 41.8153 28.1918 44.1278 26.77C42.6624 24.6771 40.2958 23.3977 37.742 23.3178C35.0552 23.0357 32.4505 24.9255 31.0813 24.9255C29.6857 24.9255 27.5777 23.3458 25.3077 23.3925C22.3211 23.489 19.6042 25.1459 18.1511 27.7571C15.0567 33.1145 17.3648 40.9882 20.329 45.3188C21.812 47.4393 23.5453 49.8081 25.8132 49.7241C28.0325 49.632 28.8614 48.3089 31.5402 48.3089C34.1943 48.3089 34.9719 49.7241 37.2858 49.6707C39.6672 49.632 41.1676 47.5407 42.5987 45.4C43.6642 43.8891 44.4842 42.2191 45.0281 40.452C42.1997 39.2557 40.3606 36.4843 40.3573 33.4133Z" fill="white"/>
<path id="_Path_2" d="M35.9855 20.4693C37.284 18.9105 37.9237 16.907 37.7688 14.8843C35.785 15.0926 33.9526 16.0407 32.6366 17.5397C31.3371 19.0185 30.6788 20.9533 30.8067 22.9179C32.817 22.9386 34.7258 22.0361 35.9855 20.4693Z" fill="white"/>
</g>
</g>
<g id="Group_3">
<path id="Path" d="M74.5664 49.7257V35.1023H74.4695L68.4805 49.5742H66.1945L60.1898 35.1023H60.0945V49.7257H57.2852V29.8569H60.8523L67.282 45.5397H67.3914L73.8086 29.8569H77.3883V49.7257L74.5664 49.7257Z" fill="white"/>
<path id="Shape" fill-rule="evenodd" clip-rule="evenodd" d="M85.1441 41.3402C81.7004 41.5465 79.7598 43.0762 79.7598 45.609C79.7611 46.8471 80.2851 48.0272 81.2027 48.8585C82.1203 49.6899 83.3462 50.0952 84.5785 49.9746C86.4684 49.9975 88.2207 48.989 89.1504 47.3433H89.2192V49.7261H92.0692V39.798C92.0692 36.9479 89.7832 35.062 86.327 35.062C82.941 35.062 80.5035 36.9198 80.4207 39.537H83.202C83.5574 38.1879 84.8612 37.314 86.2442 37.4979C88.0488 37.4979 89.1098 38.4073 89.1098 40.0183V41.1198L85.1441 41.3402ZM89.1113 43.1853V44.3009H89.1114C89.072 45.2365 88.6564 46.1166 87.9588 46.7415C87.2613 47.3664 86.341 47.683 85.4066 47.6196C83.8098 47.6196 82.7629 46.7931 82.7629 45.5259C82.7629 44.2868 83.7676 43.5165 85.5441 43.4056L89.1113 43.1853Z" fill="white"/>
<path id="Path_2" d="M104.556 40.2242C104.287 38.5811 102.802 37.4197 101.142 37.5538C98.8562 37.5538 97.3422 39.4679 97.3422 42.4835C97.3422 45.5679 98.8703 47.4257 101.169 47.4257C102.808 47.5899 104.292 46.4502 104.556 44.8241H107.42C107.05 47.939 104.266 50.1922 101.142 49.9054C97.011 49.9054 94.3125 47.082 94.3125 42.4835C94.3125 37.9804 97.0109 35.0617 101.114 35.0617C104.261 34.7948 107.047 37.0851 107.394 40.2242H104.556Z" fill="white"/>
<path id="Shape_2" fill-rule="evenodd" clip-rule="evenodd" d="M119.171 44.3554H126.745L128.562 49.7257H131.824L124.651 29.8569H121.318L114.145 49.7257H117.352L119.171 44.3554ZM125.96 41.8774H119.957L122.918 33.1618H123L125.96 41.8774Z" fill="white"/>
<path id="Shape_3" fill-rule="evenodd" clip-rule="evenodd" d="M141.27 49.8777C144.906 49.8777 147.315 46.9855 147.315 42.4839C147.315 37.9949 144.892 35.0886 141.215 35.0886C139.323 35.0276 137.551 36.0116 136.603 37.6496H136.548V35.2402H133.67V54.5183H136.643V47.3433H136.712C137.62 48.9916 139.391 49.976 141.27 49.8777ZM140.429 37.6228C142.741 37.6228 144.257 39.5509 144.257 42.4837C144.257 45.4431 142.741 47.3571 140.429 47.3571C138.157 47.3571 136.629 45.4024 136.629 42.4837C136.629 39.5915 138.157 37.6228 140.429 37.6228Z" fill="white"/>
<path id="Shape_4" fill-rule="evenodd" clip-rule="evenodd" d="M157.213 49.8777C160.849 49.8777 163.259 46.9855 163.259 42.4839C163.259 37.9949 160.835 35.0886 157.159 35.0886C155.267 35.0276 153.495 36.0116 152.546 37.6496H152.491V35.2402H149.613V54.5183H152.587V47.3433H152.656C153.564 48.9916 155.334 49.976 157.213 49.8777ZM156.375 37.6228C158.688 37.6228 160.204 39.5509 160.204 42.4837H160.204C160.204 45.4431 158.688 47.3571 156.375 47.3571C154.104 47.3571 152.575 45.4024 152.575 42.4837C152.575 39.5915 154.104 37.6228 156.375 37.6228Z" fill="white"/>
<path id="Path_3" d="M173.794 44.19C174.014 46.1603 175.928 47.454 178.544 47.454C181.05 47.454 182.853 46.1603 182.853 44.3837C182.853 42.8415 181.766 41.9181 179.191 41.2853L176.616 40.665C172.967 39.7837 171.273 38.0774 171.273 35.3087C171.273 31.8806 174.261 29.5259 178.503 29.5259C182.702 29.5259 185.58 31.8806 185.677 35.3087H182.675C182.495 33.3259 180.856 32.129 178.461 32.129C176.066 32.129 174.427 33.34 174.427 35.1025C174.427 36.5071 175.473 37.3337 178.034 37.9665L180.223 38.504C184.3 39.468 185.994 41.1056 185.994 44.0118C185.994 47.729 183.033 50.0571 178.323 50.0571C173.917 50.0571 170.942 47.7836 170.75 44.1899L173.794 44.19Z" fill="white"/>
<path id="Path_4" d="M192.414 31.812V35.2401H195.169V37.5948H192.414V45.5808C192.414 46.8214 192.966 47.3995 194.177 47.3995C194.504 47.3938 194.83 47.3708 195.155 47.3307V49.6713C194.61 49.7731 194.057 49.8191 193.503 49.8088C190.57 49.8088 189.427 48.7073 189.427 45.8979V37.5948H187.32V35.2401H189.427V31.812H192.414Z" fill="white"/>
<path id="Shape_5" fill-rule="evenodd" clip-rule="evenodd" d="M203.63 35.062C199.444 35.062 196.76 37.9261 196.76 42.4839C196.76 47.0542 199.418 49.9058 203.63 49.9058C207.844 49.9058 210.502 47.0542 210.502 42.4839C210.502 37.926 207.83 35.062 203.63 35.062ZM203.63 37.5118C206.039 37.5118 207.472 39.3571 207.472 42.4837H207.472C207.472 45.6227 206.039 47.454 203.63 47.454C201.221 47.454 199.788 45.6227 199.788 42.4837C199.788 39.3712 201.221 37.5118 203.63 37.5118Z" fill="white"/>
<path id="Path_5" d="M212.957 35.2401H215.793V37.7057H215.862C216.257 36.1184 217.712 35.0261 219.346 35.0885C219.689 35.0873 220.031 35.1245 220.365 35.1994V37.9807C219.932 37.8485 219.481 37.7878 219.029 37.801C218.155 37.7655 217.309 38.1139 216.713 38.7547C216.117 39.3954 215.831 40.2645 215.93 41.1338V49.726H212.957L212.957 35.2401Z" fill="white"/>
<path id="Shape_6" fill-rule="evenodd" clip-rule="evenodd" d="M227.837 49.9058C231.114 49.9058 233.675 48.1011 234.075 45.4714L231.252 45.4714C230.71 46.8155 229.349 47.6441 227.906 47.5089C226.824 47.5487 225.777 47.1218 225.032 46.3368C224.286 45.5517 223.914 44.4842 224.009 43.4058V43.2261H234.241V42.2073C234.241 37.8151 231.72 35.062 227.713 35.062C223.637 35.062 221.008 38.0089 221.008 42.5526C221.008 47.0823 223.623 49.9058 227.837 49.9058ZM224.024 41.1478H224.024L224.024 41.1478C224.024 41.1478 224.024 41.1478 224.024 41.1478ZM231.266 41.1478H224.024C224.022 40.1698 224.41 39.2313 225.103 38.5409C225.795 37.8505 226.735 37.4654 227.713 37.4712C228.684 37.4504 229.619 37.8353 230.293 38.5332C230.968 39.2311 231.32 40.1787 231.266 41.1478Z" fill="white"/>
</g>
</g>
</g>
</g>
<g id="_Group_5">
<g id="Group_4">
<path id="Shape_7" fill-rule="evenodd" clip-rule="evenodd" d="M64.622 16.2101C63.7518 15.2911 62.5154 14.8109 61.2531 14.9015H57.8047V24.4484H61.2531C64.0969 24.4484 65.7453 22.6952 65.7453 19.6452C65.9045 18.3897 65.4922 17.129 64.622 16.2101ZM61.0867 23.0985H59.2867V16.2508H61.0867C61.984 16.201 62.8567 16.5548 63.4659 17.2155C64.0752 17.8762 64.3573 18.7745 64.2352 19.6649C64.3669 20.559 64.0888 21.4648 63.478 22.1309C62.8672 22.797 61.9888 23.1524 61.0867 23.0985Z" fill="white"/>
<path id="Shape_8" fill-rule="evenodd" clip-rule="evenodd" d="M69.0184 17.6175C67.9161 18.3015 67.2969 19.5513 67.4204 20.8427C67.2945 22.1355 67.9132 23.3877 69.0165 24.0732C70.1197 24.7587 71.5164 24.7587 72.6197 24.0732C73.723 23.3877 74.3416 22.1355 74.2157 20.8427C74.3393 19.5513 73.72 18.3015 72.6178 17.6175C71.5155 16.9335 70.1207 16.9335 69.0184 17.6175ZM70.8191 18.3676C72.0503 18.3676 72.7519 19.2809 72.7519 20.8426H72.7519C72.7519 22.4105 72.0503 23.323 70.8191 23.3231C69.5832 23.3231 68.8879 22.4168 68.8879 20.8426C68.8879 19.2809 69.5832 18.3676 70.8191 18.3676Z" fill="white"/>
<path id="Path_6" d="M83.2484 24.4483H81.7734L80.2844 19.1421H80.1719L78.6891 24.4483H77.2281L75.2422 17.2437H76.6844L77.975 22.7413H78.0813L79.5625 17.2437H80.9266L82.4078 22.7413H82.5203L83.8047 17.2437H85.2266L83.2484 24.4483Z" fill="white"/>
<path id="Path_7" d="M86.8945 17.2439H88.2633V18.3884H88.3695C88.739 17.5457 89.6024 17.0302 90.5195 17.1048C91.2296 17.0514 91.9255 17.3238 92.4106 17.8451C92.8958 18.3664 93.1175 19.08 93.0133 19.7845V24.4485H91.5914V20.1415C91.5914 18.9837 91.0883 18.4079 90.0367 18.4079C89.5551 18.3855 89.0876 18.5745 88.757 18.9255C88.4263 19.2764 88.2654 19.7542 88.3164 20.2337V24.4485H86.8945L86.8945 17.2439Z" fill="white"/>
<path id="Path_8" d="M95.2805 14.4312H96.7023V24.4483H95.2805V14.4312Z" fill="white"/>
<path id="Shape_9" fill-rule="evenodd" clip-rule="evenodd" d="M100.278 17.6175C99.1759 18.3015 98.5566 19.5513 98.6802 20.8427C98.5543 22.1355 99.173 23.3877 100.276 24.0732C101.379 24.7587 102.776 24.7587 103.879 24.0732C104.983 23.3877 105.601 22.1355 105.475 20.8427C105.599 19.5513 104.98 18.3015 103.878 17.6175C102.775 16.9335 101.38 16.9335 100.278 17.6175ZM102.08 18.3676C103.312 18.3676 104.013 19.2809 104.013 20.8426H104.013C104.013 22.4105 103.312 23.323 102.08 23.3231C100.845 23.3231 100.149 22.4168 100.149 20.8426C100.149 19.2809 100.844 18.3676 102.08 18.3676Z" fill="white"/>
<path id="Shape_10" fill-rule="evenodd" clip-rule="evenodd" d="M109.65 20.2599C107.936 20.3662 106.971 21.1139 106.971 22.4107C106.973 23.0256 107.236 23.6109 107.693 24.0217C108.151 24.4325 108.761 24.6306 109.372 24.5669C110.245 24.6073 111.071 24.1751 111.536 23.4357H111.649V24.4482H113.018V19.5256C113.018 18.0037 111.999 17.1045 110.193 17.1045C108.558 17.1045 107.394 17.8982 107.249 19.1357H108.625C108.783 18.6264 109.333 18.335 110.127 18.335C111.099 18.335 111.602 18.7646 111.602 19.5256V20.1475L109.65 20.2599ZM111.601 21.1926V21.7949C111.57 22.2541 111.354 22.681 111.002 22.9779C110.65 23.2748 110.193 23.4163 109.735 23.3699C108.962 23.3699 108.399 22.9926 108.399 22.3441C108.399 21.709 108.849 21.3715 109.841 21.3051L111.601 21.1926Z" fill="white"/>
<path id="Shape_11" fill-rule="evenodd" clip-rule="evenodd" d="M117.877 17.1241C116.057 17.1241 114.887 18.5663 114.887 20.8429C114.887 23.1249 116.045 24.5672 117.877 24.5671C118.807 24.6013 119.678 24.1171 120.14 23.31H120.252V24.4483H121.615V14.4312H120.193V18.3881H120.087C119.657 17.5743 118.797 17.0818 117.877 17.1241ZM118.281 23.2907C117.076 23.2907 116.356 22.3712 116.356 20.8431H116.355C116.355 19.3274 117.084 18.4017 118.281 18.4017C119.471 18.4017 120.22 19.3478 120.22 20.8493C120.22 22.3579 119.479 23.2907 118.281 23.2907Z" fill="white"/>
<path id="Shape_12" fill-rule="evenodd" clip-rule="evenodd" d="M129.097 17.6175C127.994 18.3016 127.375 19.5514 127.499 20.8428C127.373 22.1357 127.992 23.3878 129.095 24.0733C130.198 24.7588 131.595 24.7588 132.698 24.0733C133.802 23.3878 134.42 22.1357 134.295 20.8428C134.418 19.5514 133.799 18.3016 132.696 17.6175C131.594 16.9335 130.199 16.9335 129.097 17.6175ZM130.897 18.3676C132.128 18.3676 132.83 19.2809 132.83 20.8426H132.83C132.83 22.4105 132.128 23.323 130.897 23.3231C129.661 23.3231 128.966 22.4168 128.966 20.8426C128.966 19.2809 129.661 18.3676 130.897 18.3676Z" fill="white"/>
<path id="Path_9" d="M136.201 17.2439H137.57V18.3884H137.676C138.046 17.5457 138.909 17.0302 139.826 17.1048C140.536 17.0514 141.232 17.3238 141.717 17.8451C142.202 18.3664 142.424 19.08 142.32 19.7845V24.4485H140.898V20.1415C140.898 18.9837 140.395 18.4079 139.343 18.4079C138.862 18.3855 138.394 18.5745 138.064 18.9255C137.733 19.2764 137.572 19.7542 137.623 20.2337V24.4485H136.201V17.2439Z" fill="white"/>
<path id="Path_10" d="M150.356 15.4497V17.2763H151.917V18.4739H150.356V22.1786C150.356 22.9333 150.667 23.2638 151.375 23.2638C151.556 23.2632 151.737 23.2522 151.917 23.231V24.4153C151.662 24.461 151.403 24.4853 151.144 24.488C149.563 24.488 148.933 23.9317 148.933 22.5427V18.4739H147.789V17.2762H148.933V15.4497H150.356Z" fill="white"/>
<path id="Path_11" d="M153.857 14.4312H155.267V18.4015H155.379C155.767 17.5514 156.645 17.0353 157.576 17.1108C158.282 17.0724 158.969 17.3508 159.448 17.8702C159.928 18.3897 160.151 19.096 160.057 19.7968V24.4484H158.634V20.1476C158.634 18.9968 158.098 18.414 157.093 18.414C156.599 18.3734 156.111 18.5532 155.762 18.9054C155.412 19.2575 155.235 19.7461 155.279 20.2405V24.4483H153.857L153.857 14.4312Z" fill="white"/>
<path id="Shape_13" fill-rule="evenodd" clip-rule="evenodd" d="M165.226 24.5874C166.634 24.7401 167.949 23.8621 168.348 22.503L166.979 22.503C166.638 23.1149 165.961 23.4599 165.265 23.3764C164.729 23.3824 164.215 23.1618 163.849 22.7688C163.484 22.3759 163.301 21.8471 163.346 21.3124V21.2328H168.434V20.7366C168.434 18.4742 167.224 17.1046 165.22 17.1046C164.257 17.0964 163.337 17.5065 162.7 18.2287C162.063 18.9508 161.77 19.914 161.898 20.8687C161.767 21.8207 162.06 22.7823 162.701 23.4984C163.342 24.2146 164.265 24.6128 165.226 24.5874ZM166.985 20.1813H163.346C163.34 19.6845 163.534 19.2061 163.885 18.8547C164.237 18.5033 164.715 18.3087 165.212 18.3149C165.702 18.3037 166.174 18.5 166.512 18.8554C166.85 19.2108 167.022 19.6924 166.985 20.1813Z" fill="white"/>
</g>
</g>
</g>
</svg>
